X: 2
T: CAPTAIN KEELER
S: "COUNTRY DANCES OF TODAY 2", CDSS, May Gadd ed., 1951 p.13
R: reel
Z: 2010 John Chambers <jc:trillian.mit.edu>
M: C
L: 1/8
K: Bb
"A"[|] F |\
"Bb"B2((3dcB) fBbB | "(Gm)"B2 ((3dcB) "F"AFcA | "Bb"B2((3dcB) fBbB | "F"cAFA "Gm"BGGF |
"Bb"B2((3dcB) fBbB | "(Gm)"B2 ((3dcB) "F"AFcA | "Bb"B2((3dcB) fBbB | "F"cAFA "Gm"BGG ||
"B"|: B |\
"Gm"DGBG dGBG | DGBG "F"AFcA | "Gm"DGBG dGBG | "F"cAFA "Gm"BGG :|


%%sep 5 1 500

%%sep 1 1 500

